X:1
T:Major Spicer
M:6/8
L:1/8
R:Jig
B:WM Cahusac - Twenty Four Country Dances for the Year 1809, No. 1
N:"With proper Directions to each Dance as they are performed at
N:Court, Bath, and all Public Assemblies."
Z:Transcribed and edited by Flynn Titford-Mock, 2007
Z:abc's:AK/Fiddler's Companion
K:A
e/d/|c2c dcd|e2c a2f|e2c AGA|{GA}B2G E2e/d/|c2c dcd|e2c a2f|
ecA {c}BAB|(A3 A2::G/A/|B2B Bcd|{cd}e2c A2 A/G/|F2F FGA|
{GA}B2G E2 G/A/|B2B Bcd|e2c a2f|ecA AGA|c3 B2:|
